usr/share/icons/biglinux-icons-material/symbolic/status/org.gnome.Shell.Extensions.GSConnect-symbolic.svg

<svg width="16" height="16" version="1.1" xmlns="http://www.w3.org/2000/svg">
 <g transform="matrix(.8 0 0 .8 .2 1.2)" fill="#363636" stroke-linecap="square" stroke-width="2.6667" style="paint-order:stroke fill markers" aria-label="">
  <path d="m4.75 12.25v1.25h-2.5v-1.25zm15 1.25h-8.75v1.25h2.5v1.25h-13.75v-11.25h1.25v-3.75h18.75zm-13.75 1.25v-8.75h-5v8.75zm3.75 1e-6v-1.25h-2.5v1.25zm-2.5-2.5h11.25v-10h-16.25v2.5h5z" stroke-width="3.3333"/>
 </g>
</svg>

<svg xmlns="http://www.w3.org/2000/svg" width="16" height="16"><path fill="#dedede" stroke-linecap="square" stroke-width="2.667" d="M4.75 12.25v1.25h-2.5v-1.25zm15 1.25H11v1.25h2.5V16H-.25V4.75H1V1h18.75zM6 14.75V6H1v8.75zm3.75 0V13.5h-2.5v1.25zm-2.5-2.5H18.5v-10H2.25v2.5h5z" aria-label="" style="paint-order:stroke fill markers" transform="matrix(.8 0 0 .8 .2 1.2)"/></svg>
